src/assets/in-depo/Summary.svg

<?xml version="1.0" encoding="UTF-8"?>
<svg width="24px" height="24px" viewBox="0 0 24 24" version="1.1" xmlns="http://www.w3.org/2000/svg" xmlns:xlink="http://www.w3.org/1999/xlink">
    <title>Foundations/Icons/Summary@1x</title>
    <g id="💡-Icons" stroke="none" stroke-width="1" fill="none" fill-rule="evenodd">
        <g id="Foundations/Icons/Summary" fill="#14232E">
            <path d="M19.5566038,4 C20.9091006,4.01023549 22,5.09593962 22,6.43167127 L22,17.5682932 C22,18.21483 21.7392938,18.8347513 21.2754873,19.2910469 C20.8116808,19.7473424 20.182968,20.0024417 19.5283019,19.9999824 L4.43396226,19.9999824 C3.08515677,19.9846526 2,18.9004282 2,17.5682932 L2,6.43167127 C2,5.08869631 3.10239321,4 4.46226415,4 L19.5566038,4 Z M19.5283019,5.11800978 L4.46226415,5.11800978 C3.72762123,5.11800978 3.13207547,5.70615606 3.13207547,6.43167127 L3.13207547,17.5682932 C3.13207547,18.2938084 3.72762123,18.8819547 4.46226415,18.8819547 L19.5566038,18.8819547 C20.2817284,18.8668388 20.8629784,18.2845512 20.8679245,17.5682932 L20.8679245,6.43167127 C20.8627401,5.7046516 20.2644865,5.11800978 19.5283019,5.11800978 Z M18.4573643,12 C18.7570537,12 19,12.2238576 19,12.5 C19,12.7761424 18.7570537,13 18.4573643,13 L12.5426357,13 C12.2429463,13 12,12.7761424 12,12.5 C12,12.2238576 12.2429463,12 12.5426357,12 L18.4573643,12 Z M8.16061113,8 C9.17645532,8 9.99998006,8.88792689 9.99998006,9.98324022 L9.99998006,11.0074488 C10.0022571,11.5350482 9.80948374,12.0418884 9.46428965,12.4158343 C9.11909556,12.7897802 8.64993659,13 8.16061113,13 L6.83938887,13 C6.35006341,13 5.88090444,12.7897802 5.53571035,12.4158343 C5.19051626,12.0418884 4.99774294,11.5350482 5.00001994,11.0074488 L5.00001994,9.98324022 C5.00001994,8.88792689 5.82354468,8 6.83938887,8 L8.16061113,8 Z M8.16061113,9.11731844 L6.83938887,9.11731844 C6.39585127,9.11731844 6.03629299,9.50500483 6.03629299,9.98324022 L6.03629299,11.0074488 C6.03629299,11.4872136 6.39445803,11.8775777 6.83938887,11.8826816 L8.16061113,11.8826816 C8.37511006,11.8826816 8.58070029,11.7901871 8.7315607,11.6257759 C8.8824211,11.4613647 8.96601345,11.2387145 8.96370701,11.0074488 L8.96370701,9.98324022 C8.96370701,9.50500483 8.60414873,9.11731844 8.16061113,9.11731844 Z M16.3865031,9 C16.7253281,9 17,9.22385763 17,9.5 C17,9.77614237 16.7253281,10 16.3865031,10 L12.6134969,10 C12.2746719,10 12,9.77614237 12,9.5 C12,9.22385763 12.2746719,9 12.6134969,9 L16.3865031,9 Z" id="Combined-Shape"></path>
        </g>
    </g>
</svg>

<svg width="24" height="24" viewBox="0 0 24 24" xmlns="http://www.w3.org/2000/svg"><path d="M19.557 4C20.909 4.01 22 5.096 22 6.432v11.136c0 .647-.26 1.267-.725 1.723a2.478 2.478 0 01-1.747.709H4.434C3.085 19.985 2 18.9 2 17.568V6.432C2 5.089 3.102 4 4.462 4h15.095zm-.029 1.118H4.462c-.734 0-1.33.588-1.33 1.314v11.136c0 .726.596 1.314 1.33 1.314h15.095a1.331 1.331 0 001.31-1.314V6.432a1.332 1.332 0 00-1.339-1.314zM18.458 12c.3 0 .542.224.542.5s-.243.5-.543.5h-5.914c-.3 0-.543-.224-.543-.5s.243-.5.543-.5h5.914zM8.16 8C9.176 8 10 8.888 10 9.983v1.024a2.066 2.066 0 01-.536 1.409A1.775 1.775 0 018.161 13H6.839c-.489 0-.958-.21-1.303-.584A2.066 2.066 0 015 11.007V9.983C5 8.888 5.824 8 6.84 8h1.32zm0 1.117H6.839c-.443 0-.803.388-.803.866v1.024c0 .48.358.87.803.876h1.322c.214 0 .42-.093.57-.257a.902.902 0 00.233-.619V9.983c0-.478-.36-.866-.803-.866zM16.387 9c.338 0 .613.224.613.5s-.275.5-.613.5h-3.774c-.338 0-.613-.224-.613-.5s.275-.5.613-.5h3.774z" fill="#14232E" fill-rule="evenodd"/></svg>
